X: 217
T:the Earl of Seafield
B:William Marshall Volume 2nd Of A Collection Of Scottish Melodies (1845)
C:William Marshall
L:1/8
M:3/4
N:Air or maybe a waltz
O:Scotland
R:Air
Z:Clark Bernst + Richard Robinson
%%Page:8 - 1
F:http://richardrobinson.tunebook.org.uk/tune/4060
%%TBL:{"version":1,"type":"tune","id":"4060"}
K:F
%%staves {1 2}
V:1 clef=treble
"^moderato" !f! \
[Ff]3 [Fc]/f/ [GBe]/d/c/B/                | a3 f/e/ g/f/e/f/ & {A}A3 c c2 | \
b2 b/a/c'/b/ a/g/f/e/ & c4 c2             | c'4 c3/2^c/ & {a}c4 F2 |
d2 {de}e2 g3/2f/ & F2 B2 A2               | c2 B2 A2 & G2 G2 F2 | \
G/A/B/c/ ^c/d/e/d/ d/D/B3/4G// & D2 G2 x2 | F2 E3/2G/ F/E/D/C/ & C2 C4 |
f3 c/f/ e/d/c/B/ & {F}F3 E B2             | a3 f/e/ g/f/e/f/ & {A}A3cc2 |\
b2 b/a/c'/b/ a/g/f/e/ & c4 c2             | c'4 c3/2^c/ &{c}c4 F2  |
d2 {de}e2 {g}f2 & F2 B2 A2                | c2 B2 [CA]F/f/ & G2E2x2|\
e/d/c/B/ A2 [EA]/G/F3/4G// & F2F2B,2      | [B,CG]4 [A,CF]2 ||
[CB,E,]>[CB,E,] [CB,E,]2 [CB,E,]2 | b2 {b}a/g/a/b/ a>g | \
gc ef b>a | a2 g>f f/e/{e}d/c/ & c2c2c2 |
[F,C]>[F,C] [F,C]2 [F,C]2 | [cc']2 b/a/b/c'/ a>g |\
gc eg b>a | [cfa]2 [ceg]>c [Fd]/c/=B/c/ |
fF Ac [cf]>_e | [Bd]>_e [Ac]>d Bd |\
gG =Bd g>f | [ce]>f [Bd]>e c>d |
aA cf ag | ba c'=b d'd |\
f/g/a/b/ a2 [Ba]/g/f3//g// | [Bcg]4 [Acf]2 |]
V:2 middle=d clef=bass
L:1/4
[Ff] [Aa] [cc'] | [Ff] [Aa] [Ff] | [Ee] [Cc] [Bb] | [Aa] [Ff] [Aa] | \
[Bb] [Gg] [Ff]  | [Ee] [Cc] [Ff] | [Bb] [Gg] [Bb] | [ca] [cg]2 | \
[Ff] [Aa] [cc'] | [Ff] [Aa] [Ff] | [Ee] [Cc] [Bb] | [Aa] [Ff] [Aa] | \
[Bb] [Gg] [Ff]  | [Ee] [Cc] [Ff]/[Aa]/ | [Bb] [cc'] [Cc] | F2 x & x C,F, ||\
C/c/E/c/G/c/ & C,,3           | c/c'/f/c'/a/c'/ & C,3 | \
[cgbc'] [cgbc'] [cgbc'] | [cfc'] [cec'] [cg] | \
F/f/c/f/c/f/ & F,,3           | f/f'/[gb]/f'/[ac]/f'/ & F,3 | \
[be'g'] [be'g'] [ac'g'c''] | c'/c/c'/b/ a/g/ & x2C | \
[fac'] [fac'] [af'] | [bf'] [c'f'] [d'f'] | \
[g=bd'] [gd'] [=ba'] | [c'g'][d'g'] [e'g'] | \
[fc'ef'] [fc'f'] [fc'f'] | [gc'e'] [ac'f'] [bd'f'] | \
[c'f'a'] [c'f'a'] [cc'] | f3 & x CF |]

